icons/video-outline.svg

<svg width="24" height="24" viewBox="0 0 24 24" fill="none" xmlns="http://www.w3.org/2000/svg">
<path fill-rule="evenodd" clip-rule="evenodd" d="M4.015 4.00501C6.03 3.99801 12.992 3.99801 14.996 4.00501C16.332 4.01001 17 4.67601 17 6.00501V9.01301L20.403 7.81001C20.909 7.63401 21.301 7.63401 21.578 7.81001C21.856 7.98601 21.997 8.28601 22 8.71101V15.387C22.017 15.741 21.876 16.007 21.578 16.184C21.28 16.361 20.933 16.391 20.538 16.274L17 15.004V18.005C17 19.338 16.333 20.005 15 20.005H4.014C2.671 20.005 2 19.339 2 18.005V6.01801C2 4.68101 2.672 4.01001 4.015 4.00501ZM4 6.00501V18.005H15V6.00501H4ZM20 10L16.998 11.005V13.008L20 14V10ZM6 15.01H10C10.667 15.003 11 15.335 11 16.005C11 16.675 10.667 17.01 10 17.01H6C5.333 17.01 5 16.675 5 16.005C5 15.335 5.333 15.003 6 15.01Z" fill="#3A3A47"/>
</svg>

<svg xmlns="http://www.w3.org/2000/svg" width="24" height="24" viewBox="0 0 24 24">
    <path fill="#3A3A47" fill-rule="evenodd" d="M14.996 4.005c1.336.005 2.004.671 2.004 2v3.008l3.403-1.203c.506-.176.898-.176 1.175 0 .278.176.419.476.422.901v6.676c.017.354-.124.62-.422.797-.298.177-.645.207-1.04.09L17 15.004v3.001c0 1.334-.667 2-2 2H4.014c-1.343 0-2.014-.666-2.014-2V6.018c0-1.337.672-2.008 2.015-2.013 2.015-.007 8.977-.007 10.981 0zm.004 2H4v12h11v-12zm-5 9.005c.667-.007 1 .325 1 .995 0 .67-.333 1.005-1 1.005H6c-.667 0-1-.335-1-1.005 0-.67.333-1.002 1-.995h4zM20 10l-3.002 1.005v2.003L20 14v-4z"/>
</svg>
